<?xml version="1.0" encoding="UTF-8"?>
<map version="1.10" tiledversion="1.12.2" orientation="orthogonal" renderorder="right-down" width="40" height="5" tilewidth="32" tileheight="32" infinite="0" nextlayerid="3" nextobjectid="11">
 <tileset firstgid="1" source="fondo_visual_1_2.tsx"/>
 <layer id="1" name="Capa de patrones 1" width="40" height="5">
  <data encoding="csv">
1,2,3,4,5,6,7,8,9,10,11,12,13,14,15,16,17,18,19,20,21,22,23,24,25,26,27,28,29,30,31,32,33,34,35,36,37,38,39,40,
41,42,43,44,45,46,47,48,49,50,51,52,53,54,55,56,57,58,59,60,61,62,63,64,65,66,67,68,69,70,71,72,73,74,75,76,77,78,79,80,
81,82,83,84,85,86,87,88,89,90,91,92,93,94,95,96,97,98,99,100,101,102,103,104,105,106,107,108,109,110,111,112,113,114,115,116,117,118,119,120,
121,122,123,124,125,126,127,128,129,130,131,132,133,134,135,136,137,138,139,140,141,142,143,144,145,146,147,148,149,150,151,152,153,154,155,156,157,158,159,160,
161,162,163,164,165,166,167,168,169,170,171,172,173,174,175,176,177,178,179,180,181,182,183,184,185,186,187,188,189,190,191,192,193,194,195,196,197,198,199,200
</data>
 </layer>
 <objectgroup id="2" name="colisiones">
  <object id="1" type="wall" x="-1.33333" y="150.667" width="236" height="8.66667"/>
  <object id="2" type="wall" x="234.667" y="128" width="33.3333" height="32"/>
  <object id="3" type="wall" x="269.333" y="109.333" width="70" height="50"/>
  <object id="4" type="wall" x="338" y="130.667" width="42.6667" height="29.3333"/>
  <object id="5" type="wall" x="381.333" y="148.667" width="876.667" height="12"/>
  <object id="6" type="wall" x="1258" y="0.666667" width="20.6667" height="158.667"/>
  <object id="7" type="wall" x="1218" y="100.667" width="38.6667" height="14.6667"/>
  <object id="8" type="wall" x="1139.33" y="57.3333" width="40.6667" height="14.6667"/>
  <object id="9" type="wall" x="702" y="15.3333" width="440.667" height="100.667"/>
  <object id="10" type="wall" x="1212.67" y="-2" width="44.6667" height="58.6667"/>
 </objectgroup>
</map>
