<?xml version="1.0" encoding="UTF-8"?>
<map version="1.10" tiledversion="1.12.2" orientation="orthogonal" renderorder="right-down" width="49" height="14" tilewidth="32" tileheight="32" infinite="0" nextlayerid="3" nextobjectid="74">
 <tileset firstgid="1" source="fondo_zona_1.tsx"/>
 <layer id="1" name="Capa de patrones 1" width="49" height="14">
  <data encoding="csv">
1,2,3,4,5,6,7,8,9,10,11,12,13,14,15,16,17,18,19,20,21,22,23,24,25,26,27,28,29,30,31,32,33,34,35,36,37,38,39,40,41,42,43,44,45,46,47,48,49,
51,52,53,54,55,56,57,58,59,60,61,62,63,64,65,66,67,68,69,70,71,72,73,74,75,76,77,78,79,80,81,82,83,84,85,86,87,88,89,90,91,92,93,94,95,96,97,98,99,
101,102,103,104,105,106,107,108,109,110,111,112,113,114,115,116,117,118,119,120,121,122,123,124,125,126,127,128,129,130,131,132,133,134,135,136,137,138,139,140,141,142,143,144,145,146,147,148,149,
151,152,153,154,155,156,157,158,159,160,161,162,163,164,165,166,167,168,169,170,171,172,173,174,452,452,177,178,179,180,181,182,183,184,185,186,187,188,189,190,191,192,193,194,195,196,197,198,199,
201,202,203,204,205,206,207,208,209,210,211,212,213,214,215,216,217,218,219,220,221,222,223,224,225,226,452,452,452,230,231,232,233,234,235,236,237,238,239,240,241,242,243,244,245,246,247,248,249,
251,252,253,254,255,256,257,258,259,260,261,262,263,452,265,266,267,268,452,452,452,452,273,274,275,276,277,278,279,280,281,282,283,284,285,286,287,288,289,290,291,292,293,294,295,296,297,298,299,
301,302,303,304,305,306,307,308,309,310,311,312,313,314,315,316,317,318,319,320,452,322,323,324,325,326,327,328,329,330,331,332,333,334,335,336,337,338,339,340,341,342,343,344,345,346,347,348,349,
351,352,353,354,355,356,357,358,359,360,361,362,363,452,452,452,452,452,369,370,371,372,373,374,375,376,377,378,379,380,381,382,383,384,385,386,387,388,389,390,391,392,393,394,395,396,397,398,399,
401,402,403,404,405,406,407,408,409,410,411,412,413,414,415,416,417,418,419,420,421,452,423,424,425,426,427,428,429,430,431,432,433,434,435,436,437,438,439,440,441,442,443,444,445,446,447,448,449,
451,452,452,452,455,456,457,458,459,460,461,462,463,464,465,466,467,468,469,470,471,472,473,474,475,476,477,478,479,480,481,482,483,484,485,486,487,488,489,490,491,492,493,494,495,496,497,498,499,
501,502,503,504,505,506,507,508,509,510,511,512,513,514,515,516,517,518,519,520,521,522,523,524,525,526,527,528,529,530,531,532,533,534,535,536,537,538,539,540,541,542,543,544,545,546,547,548,549,
551,552,553,554,555,556,557,558,559,560,561,562,563,564,565,566,567,568,569,570,571,572,573,574,575,576,577,578,579,580,581,582,583,584,585,586,587,588,589,590,591,592,593,594,595,596,597,598,599,
601,602,603,604,605,606,607,608,609,610,610,612,613,614,615,616,617,618,619,620,621,622,623,624,625,626,627,628,629,630,631,632,633,634,635,636,637,638,639,640,641,642,643,644,645,646,647,648,649,
651,652,653,654,655,656,657,658,659,660,661,662,663,664,665,666,667,668,669,670,671,672,673,674,675,676,677,678,679,680,681,682,683,684,685,686,687,688,689,690,691,692,693,694,695,696,697,698,699
</data>
 </layer>
 <objectgroup id="2" name="Colisiones">
  <object id="3" type="wall" x="-0.5" y="338.25" width="19.25" height="27.75"/>
  <object id="4" type="wall" x="19" y="357.75" width="36.75" height="70.25"/>
  <object id="5" type="wall" x="56" y="378" width="11" height="52.25"/>
  <object id="6" x="0" y="366.75" width="18" height="62.75"/>
  <object id="7" type="wall" x="66.5" y="397.25" width="143.25" height="32"/>
  <object id="8" type="wall" x="209.5" y="399.75" width="87.25" height="30.25"/>
  <object id="9" type="wall" x="297" y="409.75" width="251" height="21"/>
  <object id="10" type="wall" x="406.5" y="400.25" width="141.75" height="9.25"/>
  <object id="11" type="wall" x="479.75" y="371.75" width="69" height="28"/>
  <object id="13" type="wall" x="501.25" y="319.75" width="47" height="50.25"/>
  <object id="16" type="wall" x="400" y="361" width="60.25" height="13"/>
  <object id="18" type="wall" x="360.5" y="293" width="56.5" height="86.25"/>
  <object id="19" type="wall" x="274.25" y="325.25" width="85.75" height="53.5"/>
  <object id="20" type="wall" x="459.5" y="318.25" width="48.25" height="11.5"/>
  <object id="21" type="wall" x="408.5" y="329.5" width="20.5" height="10"/>
  <object id="23" type="wall" x="548.25" y="319.5" width="40.75" height="35"/>
  <object id="24" x="589" y="319.5" width="131" height="9.5"/>
  <object id="25" type="wall" x="409" y="216" width="183" height="36.5"/>
  <object id="26" type="wall" x="499" y="249" width="112" height="10.5"/>
  <object id="27" type="wall" x="591.75" y="307.75" width="20.5" height="11"/>
  <object id="28" type="wall" x="612.5" y="298.5" width="16" height="4.25"/>
  <object id="29" type="wall" x="628.75" y="282.5" width="23.75" height="5.25"/>
  <object id="30" type="wall" x="652.75" y="232.5" width="66.75" height="85.25"/>
  <object id="32" type="wall" x="407.25" y="185.25" width="55.5" height="29.75"/>
  <object id="33" type="wall" x="483.25" y="173.5" width="56.5" height="12"/>
  <object id="34" type="wall" x="406.75" y="147.75" width="46.5" height="36.25"/>
  <object id="35" type="wall" x="551.5" y="155.75" width="158" height="40.5"/>
  <object id="36" type="wall" x="710.25" y="185" width="62" height="23"/>
  <object id="37" type="wall" x="811" y="183.75" width="22.75" height="13.75"/>
  <object id="38" type="wall" x="771.5" y="214" width="10" height="15.25"/>
  <object id="39" type="wall" x="781" y="225" width="122" height="9.5"/>
  <object id="40" type="wall" x="925.5" y="225.25" width="36.25" height="11"/>
  <object id="41" type="wall" x="963.25" y="164" width="49.25" height="72.25"/>
  <object id="42" type="wall" x="724.25" y="228.25" width="54.5" height="60.75"/>
  <object id="43" type="wall" x="759.5" y="276.75" width="30" height="50.5"/>
  <object id="44" type="wall" x="820.75" y="274.75" width="160" height="10.5"/>
  <object id="45" type="wall" x="980.75" y="274.75" width="53.25" height="5.75"/>
  <object id="46" type="wall" x="1015.25" y="265.75" width="127.25" height="16.25"/>
  <object id="47" type="wall" x="1140.5" y="272" width="39" height="2.5"/>
  <object id="48" type="wall" x="1209.5" y="256.5" width="213.833" height="22.8333"/>
  <object id="49" type="wall" x="1410" y="238.667" width="52.6667" height="35.3333"/>
  <object id="50" type="wall" x="1446" y="218" width="121.667" height="29.3333"/>
  <object id="54" type="wall" x="1166" y="277.5" width="15" height="17"/>
  <object id="56" type="wall" x="833" y="394.5" width="448" height="15"/>
  <object id="57" type="wall" x="783" y="307" width="41" height="83"/>
  <object id="58" type="wall" x="821.5" y="341" width="12" height="51"/>
  <object id="59" type="wall" x="830.5" y="372.5" width="15.5" height="21"/>
  <object id="61" type="wall" x="842.5" y="288.5" width="18.5" height="64.5"/>
  <object id="62" x="861" y="317.5" width="31.5" height="37"/>
  <object id="63" type="wall" x="894.5" y="338.5" width="218" height="15.5"/>
  <object id="64" type="wall" x="1115" y="309.5" width="47" height="44.5"/>
  <object id="66" type="wall" x="643" y="196.25" width="32.75" height="35.5"/>
  <object id="69" type="wall" x="636.25" y="264.75" width="36" height="5"/>
  <object id="70" type="wall" x="583.75" y="228" width="18" height="6"/>
  <object id="72" type="wall" x="1558.67" y="1" width="7.83333" height="445.333"/>
  <object id="73" type="wall" x="1" y="2" width="18" height="445"/>
 </objectgroup>
</map>
