<?xml version="1.0" encoding="UTF-8"?>
<map version="1.10" tiledversion="1.12.2" orientation="orthogonal" renderorder="right-down" width="40" height="5" tilewidth="32" tileheight="32" infinite="0" nextlayerid="6" nextobjectid="27">
 <tileset firstgid="1" source="fondo_visual_2.tsx"/>
 <layer id="1" name="Fondo visual 2" width="40" height="5">
  <data encoding="csv">
1,2,3,4,5,6,7,8,9,10,11,12,13,14,15,16,17,18,19,20,21,22,23,24,25,26,27,28,29,30,31,32,33,34,35,36,37,38,39,40,
41,42,43,44,45,46,47,48,49,50,51,52,53,54,55,56,57,58,59,60,61,62,63,64,65,66,67,68,69,70,71,72,73,74,75,76,77,78,79,80,
81,82,83,84,85,86,87,88,89,90,91,92,93,94,95,96,97,98,99,100,101,102,103,104,105,106,107,108,109,110,111,112,113,114,115,116,117,118,119,120,
121,122,123,124,125,126,127,128,129,130,131,132,133,134,135,136,137,138,139,140,141,142,143,144,145,146,147,148,149,150,151,152,153,154,155,156,157,158,159,160,
161,162,163,164,165,166,167,168,169,170,171,172,173,174,175,176,177,178,179,180,181,182,183,184,185,186,187,188,189,190,191,192,193,194,195,196,197,198,199,200
</data>
 </layer>
 <objectgroup id="5" name="colisiones">
  <object id="7" x="1" y="144.5" width="232.5" height="16.5"/>
  <object id="8" x="234" y="127.5" width="35" height="33"/>
  <object id="9" x="269.5" y="110.5" width="66.5" height="50.5"/>
  <object id="11" x="336.5" y="131" width="46" height="29.5"/>
  <object id="13" x="382.667" y="144" width="822.667" height="14.6667"/>
  <object id="14" x="1204.92" y="143.949" width="74.9878" height="15.6665" rotation="359.579"/>
  <object id="15" x="1219.67" y="105.333" width="61.3333" height="15"/>
  <object id="16" x="1208.67" y="-0.333333" width="71" height="43.6667"/>
  <object id="18" x="1236.33" y="42.3333" width="43.3333" height="44"/>
  <object id="19" x="1250.33" y="67" width="29.3333" height="83.3333"/>
  <object id="21" x="1135.67" y="58.3333" width="43" height="9.66667"/>
  <object id="22" x="1098.67" y="1.33334" width="57.6667" height="66.6666"/>
  <object id="23" x="698" y="1" width="416" height="112.333"/>
  <object id="25" type="wall" x="1.33333" y="0.666667" width="693.333" height="32"/>
 </objectgroup>
</map>
