<?xml version="1.0" encoding="UTF-8"?>
<map version="1.10" tiledversion="1.12.2" orientation="orthogonal" renderorder="right-down" width="46" height="5" tilewidth="32" tileheight="32" infinite="0" nextlayerid="3" nextobjectid="37">
 <tileset firstgid="1" source="fondo_zona_2.tsx"/>
 <layer id="1" name="Capa de patrones 1" width="46" height="5">
  <data encoding="csv">
2,3,4,5,6,7,8,9,10,11,12,13,14,15,16,17,18,19,20,21,22,23,24,25,26,27,28,29,30,31,32,33,34,35,36,37,38,39,40,41,42,43,44,45,46,47,
52,53,54,55,56,57,58,59,60,61,62,63,64,65,66,67,68,69,70,71,72,73,74,75,76,77,78,79,80,81,82,83,84,85,86,87,88,89,90,91,92,93,94,95,96,97,
103,103,104,105,106,107,108,109,110,111,112,113,114,115,116,117,118,119,120,121,122,123,124,125,126,127,128,129,130,131,132,133,134,135,136,137,138,139,140,141,142,143,144,145,146,147,
153,153,154,155,156,157,158,159,160,161,162,163,164,165,166,167,168,169,170,171,172,173,174,175,176,177,178,179,180,181,182,183,184,185,186,187,188,189,190,191,192,193,194,195,196,197,
203,203,204,205,206,207,208,209,210,211,212,213,214,215,216,217,218,219,220,221,222,223,224,225,226,227,228,229,230,231,232,233,234,235,236,237,238,239,240,241,242,243,244,245,246,247
</data>
 </layer>
 <objectgroup id="2" name="colisiones">
  <object id="1" type="wall" x="0.75" y="134.75" width="134" height="8"/>
  <object id="2" type="wall" x="133.5" y="125.5" width="20.75" height="17.75"/>
  <object id="3" type="wall" x="149.875" y="115.875" width="34.875" height="27"/>
  <object id="4" type="wall" x="184.125" y="127.375" width="22.625" height="15.625"/>
  <object id="5" type="wall" x="206.364" y="135.818" width="432.727" height="7.09091"/>
  <object id="12" type="wall" x="627" y="78.5" width="11" height="56"/>
  <object id="13" type="wall" x="609.75" y="112.25" width="17" height="6.25"/>
  <object id="14" type="wall" x="615" y="54.75" width="21.25" height="36.5"/>
  <object id="15" type="wall" x="600.75" y="65.5" width="20.25" height="9.5"/>
  <object id="16" type="wall" x="560.25" y="90.25" width="30" height="5.25"/>
  <object id="17" type="wall" x="528" y="54" width="50.25" height="64.25"/>
  <object id="18" type="wall" x="527.75" y="0.5" width="4" height="52.75"/>
  <object id="19" type="wall" x="634.75" y="76.25" width="88.5" height="6.75"/>
  <object id="20" type="wall" x="658.5" y="66" width="25.5" height="10"/>
  <object id="21" type="wall" x="675.5" y="54" width="101.25" height="23.75"/>
  <object id="22" type="wall" x="715.25" y="77.25" width="61" height="63.25"/>
  <object id="23" type="wall" x="773.5" y="133.75" width="697.75" height="15"/>
  <object id="26" type="wall" x="1465.75" y="1.25" width="5.5" height="159.75"/>
  <object id="27" type="wall" x="1437.75" y="84.25" width="28" height="18.75"/>
  <object id="28" type="wall" x="1422" y="110.75" width="41.5" height="13.25"/>
  <object id="29" type="wall" x="0" y="1" width="5.75" height="159.5"/>
  <object id="30" type="wall" x="357" y="63.5" width="170.5" height="54"/>
  <object id="31" type="wall" x="5.75" y="63.25" width="349.75" height="16.25"/>
  <object id="32" type="wall" x="797" y="2.5" width="59" height="104.75"/>
  <object id="35" type="wall" x="531" y="1" width="263.5" height="14"/>
  <object id="36" type="wall" x="857" y="68.5" width="420.5" height="11.5"/>
 </objectgroup>
</map>
